website/media/images/svg/main-page-card-3.svg

<svg width="68" height="68" viewBox="0 0 68 68" fill="none" xmlns="http://www.w3.org/2000/svg">
<path d="M64.6174 40.2515V58.2803C64.6174 61.1845 62.2626 63.5394 59.3578 63.5394H8.64056C5.73633 63.5394 3.38098 61.1845 3.38098 58.2803V40.2515H64.6174Z" fill="#009846"/>
<path d="M6.88235 58.2803V40.2515H3.38098V58.2803C3.38098 61.1845 5.73633 63.5394 8.64056 63.5394H12.1419C9.2377 63.5394 6.88235 61.1845 6.88235 58.2803Z" fill="#0D6225"/>
<path d="M64.6174 40.2515V45.5028C56.8157 49.6247 48.3863 52.0698 39.8411 52.8334L28.1588 52.8345C19.6121 52.0698 11.1832 49.6247 3.38098 45.5013V40.2515H64.6174Z" fill="#0D6225"/>
<path d="M28.1588 47.5832C18.7395 46.7401 9.46083 43.8561 1.01013 38.9343V20.779C1.01013 17.8664 3.3717 15.5049 6.28423 15.5049H61.7141C64.6282 15.5049 66.9898 17.8664 66.9898 20.779V38.9343C58.5381 43.8561 49.2604 46.7401 39.8411 47.5816" fill="#009846"/>
<path d="M6.28424 15.5049H9.71817C6.80563 15.5049 4.44354 17.8664 4.44354 20.779V40.7994C3.28558 40.2147 2.13956 39.5927 1.01013 38.9343V20.779C1.01013 17.8664 3.3717 15.5049 6.28424 15.5049Z" fill="#0D6225"/>
<path d="M47.7341 36.6682V46.3889C45.1245 46.9477 42.488 47.3461 39.8411 47.5816L28.1583 47.5832C25.5114 47.3461 22.8748 46.9477 20.2653 46.3889V36.6682C20.2653 34.2013 22.2647 32.2018 24.7326 32.2018H43.2678C45.7346 32.2018 47.7341 34.2013 47.7341 36.6682Z" fill="#0D6225"/>
<path d="M36.7968 54.9885H31.2021C29.5212 54.9885 28.1583 53.6256 28.1583 51.9442V43.4292C28.1583 41.7483 29.5212 40.3854 31.2021 40.3854H36.7968C38.4778 40.3854 39.8406 41.7483 39.8406 43.4292V51.9442C39.8406 53.6256 38.4778 54.9885 36.7968 54.9885Z" fill="#F7D360"/>
<path d="M32.1981 44.4253H35.8012V50.9486H32.1981V44.4253Z" fill="#E58E13"/>
<path d="M39.3882 9.81833H28.6107C25.6816 9.81833 23.3065 7.44379 23.3065 4.51465V4.46277H44.6924V4.51465C44.6924 7.44379 42.3179 9.81833 39.3882 9.81833Z" fill="#009846"/>
<path d="M61.7141 14.4948H59.1243C58.566 14.4948 58.1142 14.9472 58.1142 15.5049C58.1142 16.0626 58.566 16.5144 59.1243 16.5144H61.7141C64.0663 16.5144 65.9802 18.4278 65.9802 20.779V38.3512C65.3706 38.6987 64.7569 39.0344 64.1395 39.3613C64.1379 39.3623 64.1359 39.3633 64.1338 39.3644C59.2343 41.9563 54.0883 43.8847 48.7447 45.1334V36.6682C48.7447 33.6488 46.2877 31.1917 43.2677 31.1917H24.7321C21.7122 31.1917 19.2552 33.6488 19.2552 36.6682V45.1339C13.2351 43.7269 7.46602 41.4593 2.01968 38.3512V20.779C2.01968 18.4278 3.93301 16.5144 6.2842 16.5144H55.0844C55.6421 16.5144 56.094 16.0626 56.094 15.5049C56.094 14.9472 55.6421 14.4948 55.0844 14.4948H51.168V9.81832C51.168 6.30865 48.3125 3.45319 44.8029 3.45319H23.196C19.6868 3.45319 16.8314 6.30865 16.8314 9.81832V14.4948H6.2842C2.81915 14.4948 0 17.3139 0 20.779V38.9343C0 39.2938 0.190918 39.6264 0.501678 39.8069C1.1206 40.1675 1.7442 40.5161 2.37142 40.8554V45.5666C2.37142 46.1243 2.8233 46.5767 3.38101 46.5767C3.93871 46.5767 4.3911 46.1243 4.3911 45.5666V41.9049C11.5324 45.4628 19.1649 47.6771 27.1487 48.5004V51.9442C27.1487 54.1797 28.9671 55.9981 31.2021 55.9981H36.7968C39.0323 55.9981 40.8507 54.1797 40.8507 51.9442V48.4994C48.8318 47.6771 56.4644 45.4634 63.6072 41.9054V58.2803C63.6072 60.6231 61.7011 62.5297 59.3577 62.5297H8.64058C6.29717 62.5297 4.3911 60.6231 4.3911 58.2803V49.6065C4.3911 49.0488 3.93871 48.5964 3.38101 48.5964C2.8233 48.5964 2.37142 49.0488 2.37142 49.6065V58.2803C2.37142 61.737 5.18383 64.5494 8.64058 64.5494H59.3577C62.815 64.5494 65.6274 61.737 65.6274 58.2803V40.8559C66.2546 40.5166 66.8787 40.1675 67.4982 39.8069C67.8089 39.6258 67.9999 39.2938 67.9999 38.9343V20.779C67.9999 17.3139 65.1802 14.4948 61.7141 14.4948ZM43.5743 5.47287C43.138 7.381 41.4265 8.80874 39.3882 8.80874H28.6107C26.5723 8.80874 24.8608 7.381 24.424 5.47287H43.5743ZM18.851 9.81832C18.851 7.70058 20.3747 5.93252 22.383 5.55069C22.879 8.54052 25.4823 10.8284 28.6107 10.8284H39.3887C42.517 10.8284 45.1198 8.54052 45.6158 5.55069C47.6246 5.93252 49.1483 7.70006 49.1483 9.81832V14.4948H18.8516V9.81832H18.851ZM38.831 51.9442C38.831 53.0658 37.9184 53.9784 36.7968 53.9784H31.2026C30.0809 53.9784 29.1684 53.0658 29.1684 51.9442V43.4291C29.1684 42.3075 30.0809 41.3955 31.2026 41.3955H36.7968C37.9184 41.3955 38.831 42.3075 38.831 43.4291V51.9442ZM36.7968 39.3753H31.2026C28.9671 39.3753 27.1487 41.1942 27.1487 43.4291V46.4683C25.1679 46.2576 23.2095 45.9593 21.2754 45.5723V36.6682C21.2754 34.7621 22.8261 33.2114 24.7321 33.2114H43.2677C45.1738 33.2114 46.725 34.7621 46.725 36.6682V45.5718C44.7904 45.9583 42.8319 46.2566 40.8507 46.4672V43.4291C40.8507 41.1942 39.0323 39.3753 36.7968 39.3753Z" fill="black"/>
<path d="M35.8013 43.4151H32.1982C31.6405 43.4151 31.1881 43.867 31.1881 44.4252V50.9486C31.1881 51.5063 31.6405 51.9587 32.1982 51.9587H35.8013C36.359 51.9587 36.8109 51.5063 36.8109 50.9486V44.4252C36.8109 43.867 36.359 43.4151 35.8013 43.4151ZM34.7912 49.939H33.2078V45.4348H34.7912V49.939Z" fill="black"/>
</svg>

<svg width="68" height="68" viewBox="0 0 68 68" fill="none" xmlns="http://www.w3.org/2000/svg"><path d="M64.617 40.252V58.28a5.26 5.26 0 01-5.26 5.26H8.642a5.26 5.26 0 01-5.26-5.26V40.251h61.236z" fill="#009846"/><path d="M6.882 58.28V40.251H3.381v18.03a5.26 5.26 0 005.26 5.258h3.5a5.26 5.26 0 01-5.259-5.259z" fill="#0D6225"/><path d="M64.617 40.252v5.25a65.496 65.496 0 01-24.776 7.331l-11.682.002A65.495 65.495 0 013.38 45.5v-5.25h61.236z" fill="#0D6225"/><path d="M28.159 47.583A65.516 65.516 0 011.01 38.934V20.78a5.274 5.274 0 015.274-5.274h55.43a5.275 5.275 0 015.276 5.274v18.155a65.495 65.495 0 01-27.149 8.648" fill="#009846"/><path d="M6.284 15.505h3.434a5.275 5.275 0 00-5.274 5.274v20.02a64.941 64.941 0 01-3.434-1.865V20.78a5.274 5.274 0 015.274-5.274zm41.45 21.163v9.72c-2.61.56-5.246.958-7.893 1.194l-11.683.001a65.688 65.688 0 01-7.893-1.194v-9.72c0-2.468 2-4.467 4.468-4.467h18.535c2.467 0 4.466 2 4.466 4.466z" fill="#0D6225"/><path d="M36.797 54.989h-5.595a3.044 3.044 0 01-3.044-3.045V43.43a3.044 3.044 0 013.044-3.044h5.595a3.044 3.044 0 013.044 3.044v8.515a3.044 3.044 0 01-3.044 3.044z" fill="#F7D360"/><path d="M32.198 44.425h3.603v6.524h-3.603v-6.524z" fill="#E58E13"/><path d="M39.388 9.818H28.611a5.304 5.304 0 01-5.305-5.303v-.052h21.386v.052a5.304 5.304 0 01-5.304 5.303z" fill="#009846"/><path d="M61.714 14.495h-2.59a1.01 1.01 0 100 2.02h2.59a4.27 4.27 0 014.266 4.264v17.572a67.44 67.44 0 01-1.84 1.01l-.006.003a63.956 63.956 0 01-15.39 5.77v-8.466a5.483 5.483 0 00-5.476-5.476H24.732a5.483 5.483 0 00-5.477 5.476v8.466A64.113 64.113 0 012.02 38.35V20.78a4.27 4.27 0 014.264-4.265h48.8a1.01 1.01 0 100-2.02h-3.916V9.819a6.372 6.372 0 00-6.365-6.365H23.196a6.372 6.372 0 00-6.365 6.365v4.677H6.284A6.291 6.291 0 000 20.779v18.155c0 .36.19.692.502.873.619.36 1.242.71 1.87 1.048v4.712a1.01 1.01 0 102.02 0v-3.662A65.945 65.945 0 0027.148 48.5v3.444a4.058 4.058 0 004.053 4.054h5.595a4.058 4.058 0 004.054-4.054V48.5a65.94 65.94 0 0022.756-6.594V58.28a4.254 4.254 0 01-4.25 4.25H8.642a4.254 4.254 0 01-4.25-4.25v-8.674a1.01 1.01 0 00-2.02 0v8.674a6.276 6.276 0 006.27 6.27h50.717a6.276 6.276 0 006.27-6.27V40.856a68.63 68.63 0 001.87-1.05 1.01 1.01 0 00.502-.872V20.78a6.292 6.292 0 00-6.286-6.284zm-18.14-9.022a4.301 4.301 0 01-4.186 3.336H28.611a4.302 4.302 0 01-4.187-3.336h19.15zM18.851 9.818a4.352 4.352 0 013.532-4.267c.496 2.99 3.1 5.277 6.228 5.277h10.778c3.128 0 5.73-2.287 6.227-5.277a4.351 4.351 0 013.532 4.267v4.677H18.852V9.818h-.001zm19.98 42.126a2.037 2.037 0 01-2.034 2.034h-5.594a2.037 2.037 0 01-2.035-2.034V43.43c0-1.122.913-2.034 2.035-2.034h5.594c1.121 0 2.034.912 2.034 2.034v8.515zm-2.034-12.569h-5.594a4.059 4.059 0 00-4.054 4.054v3.04a65.03 65.03 0 01-5.874-.897v-8.904a3.46 3.46 0 013.457-3.457h18.536a3.461 3.461 0 013.457 3.457v8.904a65.09 65.09 0 01-5.874.895V43.43a4.059 4.059 0 00-4.054-4.054z" fill="#000"/><path d="M35.801 43.415h-3.603a1.01 1.01 0 00-1.01 1.01v6.524c0 .557.453 1.01 1.01 1.01h3.603a1.01 1.01 0 001.01-1.01v-6.524a1.01 1.01 0 00-1.01-1.01zm-1.01 6.524h-1.583v-4.504h1.583v4.504z" fill="#000"/></svg>
